src/assets/hearts_3.svg

<?xml version="1.0" encoding="UTF-8"?>
<svg xmlns="http://www.w3.org/2000/svg" xmlns:xlink="http://www.w3.org/1999/xlink" width="99px" height="140px" viewBox="0 0 99 140" version="1.1">
<g id="surface1">
<path style="fill-rule:nonzero;fill:rgb(100%,100%,100%);fill-opacity:1;stroke-width:0.755906;stroke-linecap:butt;stroke-linejoin:miter;stroke:rgb(50.196078%,50.196078%,50.196078%);stroke-opacity:1;stroke-miterlimit:4;" d="M 9.297585 719.743103 L 224.702415 719.743103 C 229.632812 719.743103 233.621449 723.747651 233.621449 728.681329 L 233.621449 1043.042991 C 233.621449 1047.976669 229.632812 1051.981217 224.702415 1051.981217 L 9.297585 1051.981217 C 4.367188 1051.981217 0.378551 1047.976669 0.378551 1043.042991 L 0.378551 728.681329 C 0.378551 723.747651 4.367188 719.743103 9.297585 719.743103 Z M 9.297585 719.743103 " transform="matrix(0.423077,0,0,0.42042,0,-302.434542)"/>
<path style=" stroke:none;fill-rule:nonzero;fill:rgb(100%,0%,0%);fill-opacity:1;" d="M 7.273438 25.789062 C 6.902344 24.992188 6.417969 24.246094 5.84375 23.578125 C 5.472656 23.148438 5.066406 22.753906 4.65625 22.367188 C 4.332031 22.0625 4.003906 21.761719 3.742188 21.40625 C 3.5625 21.164062 3.414062 20.894531 3.34375 20.605469 C 3.214844 20.074219 3.355469 19.507812 3.617188 19.03125 C 3.773438 18.753906 3.96875 18.5 4.210938 18.296875 C 4.574219 17.992188 5.042969 17.8125 5.511719 17.851562 C 5.9375 17.886719 6.339844 18.105469 6.652344 18.402344 C 6.925781 18.667969 7.140625 18.996094 7.277344 19.355469 C 7.417969 18.996094 7.632812 18.667969 7.90625 18.402344 C 8.21875 18.105469 8.621094 17.886719 9.046875 17.851562 C 9.515625 17.8125 9.984375 17.992188 10.347656 18.296875 C 10.589844 18.5 10.785156 18.753906 10.941406 19.03125 C 11.203125 19.507812 11.34375 20.074219 11.214844 20.605469 C 11.144531 20.894531 10.996094 21.164062 10.816406 21.40625 C 10.554688 21.761719 10.226562 22.0625 9.902344 22.367188 C 9.492188 22.753906 9.085938 23.148438 8.714844 23.578125 C 8.140625 24.246094 7.65625 24.992188 7.285156 25.789062 "/>
<path style=" stroke:none;fill-rule:nonzero;fill:rgb(100%,0%,0%);fill-opacity:1;" d="M 91.714844 114.210938 C 91.34375 115.007812 90.859375 115.753906 90.285156 116.421875 C 89.914062 116.851562 89.507812 117.246094 89.097656 117.632812 C 88.773438 117.9375 88.445312 118.238281 88.183594 118.59375 C 88.003906 118.835938 87.855469 119.105469 87.785156 119.394531 C 87.65625 119.925781 87.796875 120.492188 88.058594 120.96875 C 88.214844 121.246094 88.410156 121.5 88.652344 121.703125 C 89.015625 122.007812 89.484375 122.1875 89.953125 122.148438 C 90.378906 122.113281 90.78125 121.894531 91.09375 121.597656 C 91.367188 121.332031 91.582031 121.003906 91.722656 120.644531 C 91.859375 121.003906 92.074219 121.332031 92.347656 121.597656 C 92.660156 121.894531 93.0625 122.113281 93.488281 122.148438 C 93.957031 122.1875 94.425781 122.007812 94.789062 121.703125 C 95.03125 121.5 95.226562 121.246094 95.382812 120.96875 C 95.644531 120.492188 95.785156 119.925781 95.65625 119.394531 C 95.585938 119.105469 95.4375 118.835938 95.257812 118.59375 C 94.996094 118.238281 94.667969 117.9375 94.34375 117.632812 C 93.933594 117.246094 93.527344 116.851562 93.15625 116.421875 C 92.582031 115.753906 92.097656 115.007812 91.726562 114.210938 "/>
<path style=" stroke:none;fill-rule:nonzero;fill:rgb(100%,0%,0%);fill-opacity:1;" d="M 49.484375 39.820312 C 48.363281 37.425781 46.914062 35.1875 45.191406 33.191406 C 44.082031 31.902344 42.863281 30.714844 41.625 29.550781 C 40.660156 28.640625 39.675781 27.738281 38.886719 26.667969 C 38.351562 25.945312 37.90625 25.140625 37.695312 24.265625 C 37.3125 22.679688 37.730469 20.976562 38.519531 19.550781 C 38.980469 18.71875 39.570312 17.949219 40.300781 17.339844 C 41.382812 16.433594 42.792969 15.890625 44.191406 16.007812 C 45.476562 16.117188 46.679688 16.769531 47.613281 17.664062 C 48.445312 18.457031 49.089844 19.445312 49.5 20.523438 C 49.910156 19.445312 50.554688 18.457031 51.386719 17.664062 C 52.320312 16.769531 53.523438 16.117188 54.808594 16.007812 C 56.207031 15.890625 57.617188 16.433594 58.699219 17.339844 C 59.429688 17.949219 60.019531 18.71875 60.480469 19.550781 C 61.269531 20.976562 61.6875 22.679688 61.304688 24.265625 C 61.09375 25.140625 60.648438 25.945312 60.113281 26.667969 C 59.324219 27.738281 58.339844 28.640625 57.375 29.550781 C 56.136719 30.714844 54.917969 31.902344 53.808594 33.191406 C 52.085938 35.1875 50.636719 37.425781 49.515625 39.820312 "/>
<path style=" stroke:none;fill-rule:nonzero;fill:rgb(100%,0%,0%);fill-opacity:1;" d="M 49.484375 81.914062 C 48.363281 79.519531 46.914062 77.28125 45.191406 75.285156 C 44.082031 73.996094 42.863281 72.808594 41.625 71.644531 C 40.660156 70.734375 39.675781 69.832031 38.886719 68.761719 C 38.351562 68.039062 37.90625 67.234375 37.695312 66.359375 C 37.3125 64.773438 37.730469 63.070312 38.519531 61.644531 C 38.980469 60.8125 39.570312 60.042969 40.300781 59.433594 C 41.382812 58.527344 42.792969 57.984375 44.191406 58.101562 C 45.476562 58.210938 46.679688 58.863281 47.613281 59.757812 C 48.445312 60.550781 49.089844 61.535156 49.5 62.617188 C 49.910156 61.535156 50.554688 60.550781 51.386719 59.757812 C 52.320312 58.863281 53.523438 58.210938 54.808594 58.101562 C 56.207031 57.984375 57.617188 58.527344 58.699219 59.433594 C 59.429688 60.042969 60.019531 60.8125 60.480469 61.644531 C 61.269531 63.070312 61.6875 64.773438 61.304688 66.359375 C 61.09375 67.234375 60.648438 68.039062 60.113281 68.761719 C 59.324219 69.832031 58.339844 70.734375 57.375 71.644531 C 56.136719 72.808594 54.917969 73.996094 53.808594 75.285156 C 52.085938 77.28125 50.636719 79.519531 49.515625 81.914062 "/>
<path style=" stroke:none;fill-rule:nonzero;fill:rgb(100%,0%,0%);fill-opacity:1;" d="M 49.484375 100.179688 C 48.363281 102.574219 46.914062 104.8125 45.191406 106.808594 C 44.082031 108.097656 42.863281 109.285156 41.625 110.449219 C 40.660156 111.359375 39.675781 112.261719 38.886719 113.332031 C 38.351562 114.054688 37.90625 114.859375 37.695312 115.734375 C 37.3125 117.320312 37.730469 119.023438 38.519531 120.449219 C 38.980469 121.28125 39.570312 122.050781 40.300781 122.660156 C 41.382812 123.566406 42.792969 124.109375 44.191406 123.992188 C 45.476562 123.882812 46.679688 123.230469 47.613281 122.335938 C 48.445312 121.542969 49.089844 120.554688 49.5 119.476562 C 49.910156 120.554688 50.554688 121.542969 51.386719 122.335938 C 52.320312 123.230469 53.523438 123.882812 54.808594 123.992188 C 56.207031 124.109375 57.617188 123.566406 58.699219 122.660156 C 59.429688 122.050781 60.019531 121.28125 60.480469 120.449219 C 61.269531 119.023438 61.6875 117.320312 61.304688 115.734375 C 61.09375 114.859375 60.648438 114.054688 60.113281 113.332031 C 59.324219 112.261719 58.339844 111.359375 57.375 110.449219 C 56.136719 109.285156 54.917969 108.097656 53.808594 106.808594 C 52.085938 104.8125 50.636719 102.574219 49.515625 100.179688 "/>
<path style=" stroke:none;fill-rule:nonzero;fill:rgb(100%,0%,0%);fill-opacity:1;" d="M 11.261719 11.835938 C 11.261719 12.941406 10.867188 13.792969 10.070312 14.386719 C 9.355469 14.929688 8.417969 15.199219 7.257812 15.199219 C 4.617188 15.199219 3.296875 13.980469 3.296875 11.542969 C 3.296875 11.429688 3.316406 11.324219 3.355469 11.21875 C 3.4375 11.171875 3.53125 11.148438 3.636719 11.148438 L 4.71875 11.148438 C 4.824219 11.148438 4.921875 11.171875 5.011719 11.21875 C 5.039062 11.296875 5.0625 11.386719 5.078125 11.488281 C 5.171875 12.160156 5.367188 12.644531 5.660156 12.949219 C 5.988281 13.285156 6.488281 13.453125 7.167969 13.453125 C 7.722656 13.453125 8.175781 13.308594 8.523438 13.015625 C 8.890625 12.699219 9.074219 12.277344 9.074219 11.746094 C 9.074219 10.621094 8.441406 9.960938 7.183594 9.765625 C 7.027344 9.746094 6.910156 9.710938 6.832031 9.667969 C 6.789062 9.582031 6.765625 9.144531 6.765625 8.351562 C 6.765625 8.25 6.792969 8.152344 6.84375 8.0625 C 7.257812 7.941406 7.675781 7.820312 8.089844 7.695312 C 8.527344 7.5 8.75 7.089844 8.75 6.46875 C 8.75 5.527344 8.183594 5.054688 7.050781 5.054688 C 6.527344 5.054688 6.121094 5.179688 5.828125 5.429688 C 5.671875 5.566406 5.511719 5.796875 5.34375 6.121094 C 5.222656 6.367188 5.101562 6.492188 4.976562 6.492188 L 3.902344 6.492188 C 3.632812 6.492188 3.496094 6.375 3.496094 6.136719 C 3.496094 5.230469 3.859375 4.515625 4.585938 3.992188 C 5.242188 3.519531 6.046875 3.285156 7 3.285156 C 8.097656 3.285156 8.996094 3.511719 9.6875 3.960938 C 10.503906 4.484375 10.914062 5.257812 10.914062 6.28125 C 10.914062 7.515625 10.289062 8.355469 9.039062 8.800781 C 10.523438 9.410156 11.261719 10.425781 11.261719 11.835938 Z M 11.261719 11.835938 "/>
<path style=" stroke:none;fill-rule:nonzero;fill:rgb(100%,0%,0%);fill-opacity:1;" d="M 87.738281 128.164062 C 87.738281 127.058594 88.132812 126.207031 88.929688 125.613281 C 89.644531 125.070312 90.582031 124.800781 91.742188 124.800781 C 94.382812 124.800781 95.703125 126.019531 95.703125 128.457031 C 95.703125 128.570312 95.683594 128.675781 95.644531 128.78125 C 95.5625 128.828125 95.46875 128.851562 95.363281 128.851562 L 94.28125 128.851562 C 94.175781 128.851562 94.078125 128.828125 93.988281 128.78125 C 93.960938 128.703125 93.9375 128.613281 93.921875 128.511719 C 93.828125 127.839844 93.632812 127.355469 93.339844 127.050781 C 93.011719 126.714844 92.511719 126.546875 91.832031 126.546875 C 91.277344 126.546875 90.824219 126.691406 90.476562 126.984375 C 90.109375 127.300781 89.925781 127.722656 89.925781 128.253906 C 89.925781 129.378906 90.558594 130.039062 91.816406 130.234375 C 91.972656 130.253906 92.089844 130.289062 92.167969 130.332031 C 92.210938 130.417969 92.234375 130.855469 92.234375 131.648438 C 92.234375 131.75 92.207031 131.847656 92.15625 131.9375 C 91.742188 132.058594 91.324219 132.179688 90.910156 132.304688 C 90.472656 132.5 90.25 132.910156 90.25 133.53125 C 90.25 134.472656 90.816406 134.945312 91.949219 134.945312 C 92.472656 134.945312 92.878906 134.820312 93.171875 134.570312 C 93.328125 134.433594 93.488281 134.203125 93.65625 133.878906 C 93.777344 133.632812 93.898438 133.507812 94.023438 133.507812 L 95.097656 133.507812 C 95.367188 133.507812 95.503906 133.625 95.503906 133.863281 C 95.503906 134.769531 95.140625 135.484375 94.414062 136.007812 C 93.757812 136.480469 92.953125 136.714844 92 136.714844 C 90.902344 136.714844 90.003906 136.488281 89.3125 136.039062 C 88.496094 135.515625 88.085938 134.742188 88.085938 133.71875 C 88.085938 132.484375 88.710938 131.644531 89.960938 131.199219 C 88.476562 130.589844 87.738281 129.574219 87.738281 128.164062 Z M 87.738281 128.164062 "/>
</g>
</svg>

<svg xmlns="http://www.w3.org/2000/svg" width="99" height="140"><path d="M9.298 719.743h215.404c4.93 0 8.92 4.005 8.92 8.938v314.362c0 4.934-3.99 8.938-8.92 8.938H9.298c-4.93 0-8.92-4.004-8.92-8.938V728.681c0-4.933 3.99-8.938 8.92-8.938Zm0 0" style="fill-rule:nonzero;fill:#fff;fill-opacity:1;stroke-width:.755906;stroke-linecap:butt;stroke-linejoin:miter;stroke:gray;stroke-opacity:1;stroke-miterlimit:4" transform="matrix(.42308 0 0 .42042 0 -302.435)"/><path d="M7.273 25.79a9.65 9.65 0 0 0-1.43-2.212 16.55 16.55 0 0 0-1.187-1.21c-.324-.305-.652-.606-.914-.962a2.267 2.267 0 0 1-.398-.8c-.13-.532.011-1.098.273-1.575a2.64 2.64 0 0 1 .594-.734c.363-.305.832-.485 1.3-.445.426.035.829.253 1.141.55.274.266.489.594.625.953.141-.359.356-.687.63-.953.312-.297.714-.515 1.14-.55.469-.04.937.14 1.3.445.243.203.438.457.594.734.262.477.403 1.043.274 1.574-.07.29-.219.56-.399.801-.261.356-.59.657-.914.961-.41.387-.816.781-1.187 1.211a9.65 9.65 0 0 0-1.43 2.211M91.715 114.21a9.65 9.65 0 0 1-1.43 2.212c-.37.43-.777.824-1.187 1.21-.325.305-.653.606-.914.962-.18.242-.329.511-.399.8-.129.532.012 1.098.274 1.575.156.277.351.531.593.734.364.305.832.484 1.301.445.426-.035.828-.253 1.14-.55.274-.266.489-.594.63-.953.136.359.351.687.625.953.312.297.715.515 1.14.55.469.04.938-.14 1.301-.445a2.64 2.64 0 0 0 .594-.734c.262-.477.402-1.043.273-1.574a2.267 2.267 0 0 0-.398-.801c-.262-.356-.59-.656-.914-.961a16.55 16.55 0 0 1-1.188-1.211 9.65 9.65 0 0 1-1.43-2.211M49.484 39.82a28.95 28.95 0 0 0-4.293-6.629c-1.109-1.289-2.328-2.476-3.566-3.64-.965-.91-1.95-1.813-2.738-2.883-.535-.723-.98-1.527-1.192-2.402-.383-1.586.035-3.29.825-4.715.46-.832 1.05-1.602 1.78-2.211 1.083-.906 2.493-1.45 3.891-1.332 1.286.11 2.489.762 3.422 1.656a7.778 7.778 0 0 1 1.887 2.86 7.778 7.778 0 0 1 1.887-2.86c.933-.894 2.136-1.547 3.422-1.656 1.398-.117 2.808.426 3.89 1.332.73.61 1.32 1.379 1.781 2.21.79 1.427 1.208 3.13.825 4.716-.211.875-.657 1.68-1.192 2.402-.789 1.07-1.773 1.973-2.738 2.883-1.238 1.164-2.457 2.351-3.566 3.64a28.95 28.95 0 0 0-4.293 6.63M49.484 81.914a28.95 28.95 0 0 0-4.293-6.629c-1.109-1.289-2.328-2.476-3.566-3.64-.965-.91-1.95-1.813-2.738-2.883-.535-.723-.98-1.528-1.192-2.403-.383-1.586.035-3.289.825-4.714.46-.833 1.05-1.602 1.78-2.211 1.083-.907 2.493-1.45 3.891-1.332 1.286.109 2.489.761 3.422 1.656a7.746 7.746 0 0 1 1.887 2.86 7.746 7.746 0 0 1 1.887-2.86c.933-.895 2.136-1.547 3.422-1.656 1.398-.118 2.808.425 3.89 1.332.73.609 1.32 1.379 1.781 2.21.79 1.426 1.208 3.13.825 4.715-.211.875-.657 1.68-1.192 2.403-.789 1.07-1.773 1.972-2.738 2.883-1.238 1.164-2.457 2.351-3.566 3.64a28.95 28.95 0 0 0-4.293 6.63M49.484 100.18a28.95 28.95 0 0 1-4.293 6.629c-1.109 1.289-2.328 2.476-3.566 3.64-.965.91-1.95 1.813-2.738 2.883-.535.723-.98 1.527-1.192 2.402-.383 1.586.035 3.29.825 4.715.46.832 1.05 1.602 1.78 2.211 1.083.906 2.493 1.45 3.891 1.332 1.286-.11 2.489-.762 3.422-1.656a7.778 7.778 0 0 0 1.887-2.86 7.778 7.778 0 0 0 1.887 2.86c.933.894 2.136 1.547 3.422 1.656 1.398.117 2.808-.426 3.89-1.332.73-.61 1.32-1.379 1.781-2.21.79-1.427 1.208-3.13.825-4.716-.211-.875-.657-1.68-1.192-2.402-.789-1.07-1.773-1.973-2.738-2.883-1.238-1.164-2.457-2.351-3.566-3.64a28.95 28.95 0 0 1-4.293-6.63M11.262 11.836c0 1.105-.395 1.957-1.192 2.55-.715.544-1.652.813-2.812.813-2.64 0-3.961-1.219-3.961-3.656 0-.113.02-.219.058-.324a.557.557 0 0 1 .282-.07h1.082c.105 0 .203.023.293.07.027.078.05.168.066.27.094.671.29 1.156.582 1.46.328.336.828.504 1.508.504.555 0 1.008-.144 1.355-.437.368-.317.551-.739.551-1.27 0-1.125-.633-1.785-1.89-1.98a1.008 1.008 0 0 1-.352-.098c-.043-.086-.066-.523-.066-1.316 0-.102.027-.2.078-.29.414-.12.832-.242 1.246-.367.437-.195.66-.605.66-1.226 0-.942-.566-1.414-1.7-1.414-.523 0-.929.125-1.222.375-.156.136-.316.367-.484.691-.121.246-.242.371-.367.371H3.902c-.27 0-.406-.117-.406-.355 0-.907.363-1.621 1.09-2.145.656-.472 1.46-.707 2.414-.707 1.098 0 1.996.227 2.688.676.816.523 1.226 1.297 1.226 2.32 0 1.235-.625 2.074-1.875 2.52 1.484.61 2.223 1.625 2.223 3.035ZM87.738 128.164c0-1.105.395-1.957 1.192-2.55.715-.544 1.652-.813 2.812-.813 2.64 0 3.961 1.219 3.961 3.656 0 .113-.02.219-.058.324a.557.557 0 0 1-.282.07h-1.082a.624.624 0 0 1-.293-.07 1.511 1.511 0 0 1-.066-.27c-.094-.671-.29-1.156-.582-1.46-.328-.336-.828-.504-1.508-.504-.555 0-1.008.144-1.355.437-.368.317-.551.739-.551 1.27 0 1.125.633 1.785 1.89 1.98.157.02.274.055.352.098.043.086.066.523.066 1.316 0 .102-.027.2-.078.29-.414.12-.832.242-1.246.367-.437.195-.66.605-.66 1.226 0 .942.566 1.414 1.7 1.414.523 0 .929-.125 1.222-.375.156-.136.316-.367.484-.691.121-.246.242-.371.367-.371h1.075c.27 0 .406.117.406.355 0 .907-.363 1.621-1.09 2.145-.656.472-1.46.707-2.414.707-1.098 0-1.996-.227-2.688-.676-.816-.523-1.226-1.297-1.226-2.32 0-1.235.625-2.074 1.875-2.52-1.484-.61-2.223-1.625-2.223-3.035Zm0 0" style="stroke:none;fill-rule:nonzero;fill:red;fill-opacity:1"/></svg>
